icons/square-person.svg

<svg xmlns="http://www.w3.org/2000/svg" width="24" height="24" viewBox="0 0 24 24">
  <path d="M20,2 C21.1045695,2 22,2.8954305 22,4 L22,20 C22,21.1045695 21.1045695,22 20,22 L4,22 C2.8954305,22 2,21.1045695 2,20 L2,4 C2,2.8954305 2.8954305,2 4,2 L20,2 Z M13,14 L11,14 L10.7245789,14.0029144 C7.93847656,14.0629883 7,15.046875 7,16.5 C7,17.5 7.5,18 8,18 L8,18 L16,18 L16.0936279,17.9941406 C16.5605469,17.9355469 17,17.4375 17,16.5 C17,15 16,14 13,14 L13,14 Z M12,6 C10.3431458,6 9,7.34314575 9,9 C9,10.6568542 10.3431458,12 12,12 C13.6568542,12 15,10.6568542 15,9 C15,7.34314575 13.6568542,6 12,6 Z"/>
</svg>

<svg xmlns="http://www.w3.org/2000/svg" viewBox="0 0 24 24">
  <path d="M20 2a2 2 0 0 1 2 2v16a2 2 0 0 1-2 2H4a2 2 0 0 1-2-2V4c0-1.1.9-2 2-2h16zm-7 12h-2.28C7.94 14.06 7 15.05 7 16.5c0 1 .5 1.5 1 1.5h8.1c.46-.06.9-.56.9-1.5 0-1.5-1-2.5-4-2.5zm-1-8a3 3 0 1 0 0 6 3 3 0 0 0 0-6z"/>
</svg>
